app/assets/images/heroicons/solid/document-currency-euro.svg

<svg width="24" height="24" viewBox="0 0 24 24" fill="none" xmlns="http://www.w3.org/2000/svg">
<path fill-rule="evenodd" clip-rule="evenodd" d="M3.75 3.375C3.75 2.33947 4.58947 1.5 5.625 1.5H9C11.0711 1.5 12.75 3.17893 12.75 5.25V7.125C12.75 8.16053 13.5895 9 14.625 9H16.5C18.5711 9 20.25 10.6789 20.25 12.75V20.625C20.25 21.6605 19.4105 22.5 18.375 22.5H5.625C4.58947 22.5 3.75 21.6605 3.75 20.625V3.375ZM11.2143 12.8169C11.6727 12.2438 12.233 12 12.75 12C13.267 12 13.8273 12.2438 14.2857 12.8169C14.5444 13.1403 15.0164 13.1928 15.3398 12.934C15.6633 12.6752 15.7157 12.2033 15.457 11.8798C14.7438 10.9884 13.7685 10.5 12.75 10.5C11.7315 10.5 10.7562 10.9884 10.043 11.8798C9.74355 12.2542 9.50857 12.6761 9.33807 13.125H8.25C7.83579 13.125 7.5 13.4608 7.5 13.875C7.5 14.2892 7.83579 14.625 8.25 14.625H9.01289C8.9957 14.8745 8.9957 15.1255 9.01289 15.375H8.25C7.83579 15.375 7.5 15.7108 7.5 16.125C7.5 16.5392 7.83579 16.875 8.25 16.875H9.33807C9.50857 17.3239 9.74355 17.7458 10.043 18.1202C10.7562 19.0116 11.7315 19.5 12.75 19.5C13.7685 19.5 14.7438 19.0116 15.457 18.1202C15.7157 17.7967 15.6633 17.3248 15.3398 17.066C15.0164 16.8072 14.5444 16.8597 14.2857 17.1831C13.8273 17.7562 13.267 18 12.75 18C12.233 18 11.6727 17.7562 11.2143 17.1831C11.1362 17.0855 11.0645 16.9825 10.9992 16.875H12.75C13.1642 16.875 13.5 16.5392 13.5 16.125C13.5 15.7108 13.1642 15.375 12.75 15.375H10.5178C10.4941 15.126 10.4941 14.874 10.5178 14.625H12.75C13.1642 14.625 13.5 14.2892 13.5 13.875C13.5 13.4608 13.1642 13.125 12.75 13.125H10.9992C11.0645 13.0175 11.1362 12.9145 11.2143 12.8169Z" fill="black"/>
<path d="M14.25 5.25C14.25 3.93695 13.768 2.73648 12.9712 1.8159C16.3701 2.70377 19.0462 5.37988 19.9341 8.77881C19.0135 7.98204 17.8131 7.5 16.5 7.5H14.625C14.4179 7.5 14.25 7.33211 14.25 7.125V5.25Z" fill="black"/>
</svg>

<svg xmlns="http://www.w3.org/2000/svg" viewBox="0 0 24 24" fill="currentColor" aria-hidden="true" data-slot="icon">
  <path fill-rule="evenodd" d="M3.75 3.375c0-1.036.84-1.875 1.875-1.875H9a3.75 3.75 0 0 1 3.75 3.75v1.875c0 1.036.84 1.875 1.875 1.875H16.5a3.75 3.75 0 0 1 3.75 3.75v7.875c0 1.035-.84 1.875-1.875 1.875H5.625a1.875 1.875 0 0 1-1.875-1.875V3.375Zm7.464 9.442c.459-.573 1.019-.817 1.536-.817.517 0 1.077.244 1.536.817a.75.75 0 1 0 1.171-.937c-.713-.892-1.689-1.38-2.707-1.38-1.018 0-1.994.488-2.707 1.38a4.61 4.61 0 0 0-.705 1.245H8.25a.75.75 0 0 0 0 1.5h.763c-.017.25-.017.5 0 .75H8.25a.75.75 0 0 0 0 1.5h1.088c.17.449.406.87.705 1.245.713.892 1.689 1.38 2.707 1.38 1.018 0 1.994-.488 2.707-1.38a.75.75 0 0 0-1.171-.937c-.459.573-1.019.817-1.536.817-.517 0-1.077-.244-1.536-.817-.078-.098-.15-.2-.215-.308h1.751a.75.75 0 0 0 0-1.5h-2.232a3.965 3.965 0 0 1 0-.75h2.232a.75.75 0 0 0 0-1.5H11c.065-.107.136-.21.214-.308Z" clip-rule="evenodd"/>
  <path d="M14.25 5.25a5.23 5.23 0 0 0-1.279-3.434 9.768 9.768 0 0 1 6.963 6.963A5.23 5.23 0 0 0 16.5 7.5h-1.875a.375.375 0 0 1-.375-.375V5.25Z"/>
</svg>
